src/lib/packages/icons/src/assets/line/grid-2.svg

<svg xmlns="http://www.w3.org/2000/svg" width="24" height="24" fill="none"><path fill="currentColor" d="M5.5 7.75h-1c-1.409 0-2.25-.841-2.25-2.25v-1c0-1.409.841-2.25 2.25-2.25h1c1.409 0 2.25.841 2.25 2.25v1c0 1.409-.841 2.25-2.25 2.25Zm-1-4c-.589 0-.75.161-.75.75v1c0 .589.161.75.75.75h1c.589 0 .75-.161.75-.75v-1c0-.589-.161-.75-.75-.75h-1Zm8 4h-1c-1.409 0-2.25-.841-2.25-2.25v-1c0-1.409.841-2.25 2.25-2.25h1c1.409 0 2.25.841 2.25 2.25v1c0 1.409-.841 2.25-2.25 2.25Zm-1-4c-.589 0-.75.161-.75.75v1c0 .589.161.75.75.75h1c.589 0 .75-.161.75-.75v-1c0-.589-.161-.75-.75-.75h-1Zm8 4h-1c-1.409 0-2.25-.841-2.25-2.25v-1c0-1.409.841-2.25 2.25-2.25h1c1.409 0 2.25.841 2.25 2.25v1c0 1.409-.841 2.25-2.25 2.25Zm-1-4c-.589 0-.75.161-.75.75v1c0 .589.161.75.75.75h1c.589 0 .75-.161.75-.75v-1c0-.589-.161-.75-.75-.75h-1Zm-13 11h-1c-1.409 0-2.25-.841-2.25-2.25v-1c0-1.409.841-2.25 2.25-2.25h1c1.409 0 2.25.841 2.25 2.25v1c0 1.409-.841 2.25-2.25 2.25Zm-1-4c-.589 0-.75.161-.75.75v1c0 .589.161.75.75.75h1c.589 0 .75-.161.75-.75v-1c0-.589-.161-.75-.75-.75h-1Zm8 4h-1c-1.409 0-2.25-.841-2.25-2.25v-1c0-1.409.841-2.25 2.25-2.25h1c1.409 0 2.25.841 2.25 2.25v1c0 1.409-.841 2.25-2.25 2.25Zm-1-4c-.589 0-.75.161-.75.75v1c0 .589.161.75.75.75h1c.589 0 .75-.161.75-.75v-1c0-.589-.161-.75-.75-.75h-1Zm8 4h-1c-1.409 0-2.25-.841-2.25-2.25v-1c0-1.409.841-2.25 2.25-2.25h1c1.409 0 2.25.841 2.25 2.25v1c0 1.409-.841 2.25-2.25 2.25Zm-1-4c-.589 0-.75.161-.75.75v1c0 .589.161.75.75.75h1c.589 0 .75-.161.75-.75v-1c0-.589-.161-.75-.75-.75h-1Zm-13 11h-1c-1.409 0-2.25-.841-2.25-2.25v-1c0-1.409.841-2.25 2.25-2.25h1c1.409 0 2.25.841 2.25 2.25v1c0 1.409-.841 2.25-2.25 2.25Zm-1-4c-.589 0-.75.161-.75.75v1c0 .589.161.75.75.75h1c.589 0 .75-.161.75-.75v-1c0-.589-.161-.75-.75-.75h-1Zm8 4h-1c-1.409 0-2.25-.841-2.25-2.25v-1c0-1.409.841-2.25 2.25-2.25h1c1.409 0 2.25.841 2.25 2.25v1c0 1.409-.841 2.25-2.25 2.25Zm-1-4c-.589 0-.75.161-.75.75v1c0 .589.161.75.75.75h1c.589 0 .75-.161.75-.75v-1c0-.589-.161-.75-.75-.75h-1Zm8 4h-1c-1.409 0-2.25-.841-2.25-2.25v-1c0-1.409.841-2.25 2.25-2.25h1c1.409 0 2.25.841 2.25 2.25v1c0 1.409-.841 2.25-2.25 2.25Zm-1-4c-.589 0-.75.161-.75.75v1c0 .589.161.75.75.75h1c.589 0 .75-.161.75-.75v-1c0-.589-.161-.75-.75-.75h-1Z"/></svg>

<svg width="24" height="24" viewBox="0 0 24 24" fill="none" xmlns="http://www.w3.org/2000/svg">
<path d="M5.5 7.75H4.5C3.091 7.75 2.25 6.909 2.25 5.5V4.5C2.25 3.091 3.091 2.25 4.5 2.25H5.5C6.909 2.25 7.75 3.091 7.75 4.5V5.5C7.75 6.909 6.909 7.75 5.5 7.75ZM4.5 3.75C3.911 3.75 3.75 3.911 3.75 4.5V5.5C3.75 6.089 3.911 6.25 4.5 6.25H5.5C6.089 6.25 6.25 6.089 6.25 5.5V4.5C6.25 3.911 6.089 3.75 5.5 3.75H4.5ZM12.5 7.75H11.5C10.091 7.75 9.25 6.909 9.25 5.5V4.5C9.25 3.091 10.091 2.25 11.5 2.25H12.5C13.909 2.25 14.75 3.091 14.75 4.5V5.5C14.75 6.909 13.909 7.75 12.5 7.75ZM11.5 3.75C10.911 3.75 10.75 3.911 10.75 4.5V5.5C10.75 6.089 10.911 6.25 11.5 6.25H12.5C13.089 6.25 13.25 6.089 13.25 5.5V4.5C13.25 3.911 13.089 3.75 12.5 3.75H11.5ZM19.5 7.75H18.5C17.091 7.75 16.25 6.909 16.25 5.5V4.5C16.25 3.091 17.091 2.25 18.5 2.25H19.5C20.909 2.25 21.75 3.091 21.75 4.5V5.5C21.75 6.909 20.909 7.75 19.5 7.75ZM18.5 3.75C17.911 3.75 17.75 3.911 17.75 4.5V5.5C17.75 6.089 17.911 6.25 18.5 6.25H19.5C20.089 6.25 20.25 6.089 20.25 5.5V4.5C20.25 3.911 20.089 3.75 19.5 3.75H18.5ZM5.5 14.75H4.5C3.091 14.75 2.25 13.909 2.25 12.5V11.5C2.25 10.091 3.091 9.25 4.5 9.25H5.5C6.909 9.25 7.75 10.091 7.75 11.5V12.5C7.75 13.909 6.909 14.75 5.5 14.75ZM4.5 10.75C3.911 10.75 3.75 10.911 3.75 11.5V12.5C3.75 13.089 3.911 13.25 4.5 13.25H5.5C6.089 13.25 6.25 13.089 6.25 12.5V11.5C6.25 10.911 6.089 10.75 5.5 10.75H4.5ZM12.5 14.75H11.5C10.091 14.75 9.25 13.909 9.25 12.5V11.5C9.25 10.091 10.091 9.25 11.5 9.25H12.5C13.909 9.25 14.75 10.091 14.75 11.5V12.5C14.75 13.909 13.909 14.75 12.5 14.75ZM11.5 10.75C10.911 10.75 10.75 10.911 10.75 11.5V12.5C10.75 13.089 10.911 13.25 11.5 13.25H12.5C13.089 13.25 13.25 13.089 13.25 12.5V11.5C13.25 10.911 13.089 10.75 12.5 10.75H11.5ZM19.5 14.75H18.5C17.091 14.75 16.25 13.909 16.25 12.5V11.5C16.25 10.091 17.091 9.25 18.5 9.25H19.5C20.909 9.25 21.75 10.091 21.75 11.5V12.5C21.75 13.909 20.909 14.75 19.5 14.75ZM18.5 10.75C17.911 10.75 17.75 10.911 17.75 11.5V12.5C17.75 13.089 17.911 13.25 18.5 13.25H19.5C20.089 13.25 20.25 13.089 20.25 12.5V11.5C20.25 10.911 20.089 10.75 19.5 10.75H18.5ZM5.5 21.75H4.5C3.091 21.75 2.25 20.909 2.25 19.5V18.5C2.25 17.091 3.091 16.25 4.5 16.25H5.5C6.909 16.25 7.75 17.091 7.75 18.5V19.5C7.75 20.909 6.909 21.75 5.5 21.75ZM4.5 17.75C3.911 17.75 3.75 17.911 3.75 18.5V19.5C3.75 20.089 3.911 20.25 4.5 20.25H5.5C6.089 20.25 6.25 20.089 6.25 19.5V18.5C6.25 17.911 6.089 17.75 5.5 17.75H4.5ZM12.5 21.75H11.5C10.091 21.75 9.25 20.909 9.25 19.5V18.5C9.25 17.091 10.091 16.25 11.5 16.25H12.5C13.909 16.25 14.75 17.091 14.75 18.5V19.5C14.75 20.909 13.909 21.75 12.5 21.75ZM11.5 17.75C10.911 17.75 10.75 17.911 10.75 18.5V19.5C10.75 20.089 10.911 20.25 11.5 20.25H12.5C13.089 20.25 13.25 20.089 13.25 19.5V18.5C13.25 17.911 13.089 17.75 12.5 17.75H11.5ZM19.5 21.75H18.5C17.091 21.75 16.25 20.909 16.25 19.5V18.5C16.25 17.091 17.091 16.25 18.5 16.25H19.5C20.909 16.25 21.75 17.091 21.75 18.5V19.5C21.75 20.909 20.909 21.75 19.5 21.75ZM18.5 17.75C17.911 17.75 17.75 17.911 17.75 18.5V19.5C17.75 20.089 17.911 20.25 18.5 20.25H19.5C20.089 20.25 20.25 20.089 20.25 19.5V18.5C20.25 17.911 20.089 17.75 19.5 17.75H18.5Z" fill="currentColor"/>
</svg>
